.depcrecated/histology.pp3
[Exposure]
Auto=true
Clip=0.02

